svgs/light/money-check.svg

<svg xmlns="http://www.w3.org/2000/svg" viewBox="0 0 576 512"><!--! Font Awesome Pro 6.4.2 by @fontawesome - https://fontawesome.com License - https://fontawesome.com/license (Commercial License) Copyright 2023 Fonticons, Inc. --><path d="M64 96c-17.7 0-32 14.3-32 32V384c0 17.7 14.3 32 32 32H512c17.7 0 32-14.3 32-32V128c0-17.7-14.3-32-32-32H64zM0 128C0 92.7 28.7 64 64 64H512c35.3 0 64 28.7 64 64V384c0 35.3-28.7 64-64 64H64c-35.3 0-64-28.7-64-64V128zm112 96H240c8.8 0 16 7.2 16 16s-7.2 16-16 16H112c-8.8 0-16-7.2-16-16s7.2-16 16-16zM96 336c0-8.8 7.2-16 16-16H464c8.8 0 16 7.2 16 16s-7.2 16-16 16H112c-8.8 0-16-7.2-16-16zM360 176c-4.4 0-8 3.6-8 8v48c0 4.4 3.6 8 8 8h80c4.4 0 8-3.6 8-8V184c0-4.4-3.6-8-8-8H360zm-40 8c0-22.1 17.9-40 40-40h80c22.1 0 40 17.9 40 40v48c0 22.1-17.9 40-40 40H360c-22.1 0-40-17.9-40-40V184z"/></svg>

<svg xmlns="http://www.w3.org/2000/svg" viewBox="0 0 576 512"><!--! Font Awesome Pro 6.1.1 by @fontawesome - https://fontawesome.com License - https://fontawesome.com/license (Commercial License) Copyright 2022 Fonticons, Inc. --><path d="M240 224C248.8 224 256 231.2 256 240C256 248.8 248.8 256 240 256H112C103.2 256 96 248.8 96 240C96 231.2 103.2 224 112 224H240zM96 336C96 327.2 103.2 320 112 320H464C472.8 320 480 327.2 480 336C480 344.8 472.8 352 464 352H112C103.2 352 96 344.8 96 336zM320 184C320 161.9 337.9 144 360 144H440C462.1 144 480 161.9 480 184V232C480 254.1 462.1 272 440 272H360C337.9 272 320 254.1 320 232V184zM352 184V232C352 236.4 355.6 240 360 240H440C444.4 240 448 236.4 448 232V184C448 179.6 444.4 176 440 176H360C355.6 176 352 179.6 352 184zM0 128C0 92.65 28.65 64 64 64H512C547.3 64 576 92.65 576 128V384C576 419.3 547.3 448 512 448H64C28.65 448 0 419.3 0 384V128zM32 128V384C32 401.7 46.33 416 64 416H512C529.7 416 544 401.7 544 384V128C544 110.3 529.7 96 512 96H64C46.33 96 32 110.3 32 128z"/></svg>
